src/lib/packages/icons/src/assets/line/home-roof-trend-down.svg

<svg width="24" height="24" viewBox="0 0 24 24" fill="none" xmlns="http://www.w3.org/2000/svg">
<path d="M21.477 9.08502L14.0649 2.98907C12.8679 2.00707 11.133 2.00607 9.93598 2.98907L2.52399 9.08404C2.20499 9.34704 2.15796 9.81907 2.42096 10.1401C2.68396 10.4611 3.15699 10.5051 3.47699 10.2431L4.24994 9.60711V18.0001C4.24994 20.4181 5.58194 21.7501 7.99994 21.7501H15.9999C18.4179 21.7501 19.7499 20.4181 19.7499 18.0001V9.60711L20.5229 10.2431C20.6629 10.3581 20.8319 10.414 20.9999 10.414C21.2159 10.414 21.4309 10.321 21.5789 10.141C21.8429 9.82005 21.796 9.34802 21.477 9.08502ZM18.2499 18.0001C18.2499 19.5771 17.5769 20.2501 15.9999 20.2501H7.99994C6.42294 20.2501 5.74994 19.5771 5.74994 18.0001V8.37408L10.889 4.14911C11.532 3.62011 12.469 3.62011 13.112 4.14911L18.2509 8.37506V18.0001H18.2499ZM13.692 12.3182L15.2499 13.876V13.1871C15.2499 12.7731 15.5859 12.4371 15.9999 12.4371C16.4139 12.4371 16.7499 12.7731 16.7499 13.1871V15.6871C16.7499 15.7851 16.73 15.8822 16.692 15.9742C16.616 16.1572 16.4699 16.303 16.2869 16.379C16.1949 16.417 16.0979 16.4371 15.9999 16.4371H13.4999C13.0859 16.4371 12.7499 16.1011 12.7499 15.6871C12.7499 15.2731 13.0859 14.9371 13.4999 14.9371H14.1889L12.6309 13.379L11.535 14.5582C10.992 15.1012 10.0419 15.1032 9.49591 14.5582L7.46991 12.5311C7.17691 12.2381 7.17691 11.763 7.46991 11.47C7.76291 11.177 8.23795 11.177 8.53095 11.47L10.5579 13.4971L11.654 12.3182C12.198 11.7732 13.147 11.7732 13.692 12.3182Z" fill="currentColor"/>
</svg>

<svg xmlns="http://www.w3.org/2000/svg" width="24" height="24" fill="none"><path fill="currentColor" d="m21.477 9.085-7.412-6.096a3.26 3.26 0 0 0-4.129 0L2.524 9.084a.751.751 0 0 0 .953 1.16l.773-.637V18c0 2.418 1.332 3.75 3.75 3.75h8c2.418 0 3.75-1.332 3.75-3.75V9.607l.773.636a.749.749 0 0 0 1.056-.102.75.75 0 0 0-.102-1.056ZM18.25 18c0 1.577-.673 2.25-2.25 2.25H8c-1.577 0-2.25-.673-2.25-2.25V8.374l5.139-4.225a1.755 1.755 0 0 1 2.223 0l5.139 4.226V18h-.001Zm-4.558-5.682 1.558 1.558v-.689a.75.75 0 0 1 1.5 0v2.5a.751.751 0 0 1-.75.75h-2.5a.75.75 0 0 1 0-1.5h.689L12.63 13.38l-1.096 1.18c-.543.542-1.493.544-2.04 0L7.47 12.53a.75.75 0 0 1 1.06-1.06l2.027 2.027 1.096-1.179c.544-.545 1.493-.545 2.038 0Z"/></svg>
